assets/img/cost-card.svg

<svg viewBox="0 0 99 100" fill="none" xmlns="http://www.w3.org/2000/svg">
<ellipse cx="49.5" cy="50" rx="49.5" ry="50" fill="white"/>
<mask id="mask0_2491_248" style="mask-type:alpha" maskUnits="userSpaceOnUse" x="29" y="22" width="41" height="56">
<rect x="29" y="22" width="41" height="56" fill="#D9D9D9"/>
</mask>
<g mask="url(#mask0_2491_248)">
<path d="M49.5811 76C48.7783 76 48.1054 75.7285 47.5624 75.1854C47.0193 74.6424 46.7478 73.9694 46.7478 73.1667V69.9083C44.6228 69.4361 42.7575 68.6097 41.152 67.4292C39.5464 66.2486 38.2478 64.5958 37.2561 62.4708C36.9256 61.8097 36.9138 61.1132 37.2207 60.3812C37.5277 59.6493 38.0825 59.1181 38.8853 58.7875C39.5464 58.5042 40.2311 58.516 40.9395 58.8229C41.6478 59.1299 42.1908 59.6375 42.5686 60.3458C43.3714 61.7625 44.3867 62.8368 45.6145 63.5687C46.8422 64.3007 48.3533 64.6667 50.1478 64.6667C52.0839 64.6667 53.7249 64.2299 55.0707 63.3563C56.4165 62.4826 57.0895 61.125 57.0895 59.2833C57.0895 57.6306 56.57 56.3201 55.5311 55.3521C54.4922 54.384 52.0839 53.2861 48.3061 52.0583C44.245 50.7833 41.4589 49.2604 39.9478 47.4896C38.4367 45.7188 37.6811 43.5583 37.6811 41.0083C37.6811 37.9389 38.6728 35.5542 40.6561 33.8542C42.6395 32.1542 44.67 31.1861 46.7478 30.95V27.8333C46.7478 27.0306 47.0193 26.3576 47.5624 25.8146C48.1054 25.2715 48.7783 25 49.5811 25C50.3839 25 51.0568 25.2715 51.5999 25.8146C52.1429 26.3576 52.4145 27.0306 52.4145 27.8333V30.95C54.2089 31.2333 55.7672 31.8118 57.0895 32.6854C58.4117 33.559 59.4978 34.6333 60.3478 35.9083C60.7728 36.5222 60.8554 37.2069 60.5957 37.9625C60.336 38.7181 59.8047 39.2611 59.002 39.5917C58.3408 39.875 57.6561 39.8868 56.9478 39.6271C56.2395 39.3674 55.5783 38.9069 54.9645 38.2458C54.3506 37.5847 53.6304 37.0771 52.804 36.7229C51.9777 36.3688 50.9506 36.1917 49.7228 36.1917C47.645 36.1917 46.0631 36.6521 44.977 37.5729C43.8908 38.4937 43.3478 39.6389 43.3478 41.0083C43.3478 42.5667 44.0561 43.7944 45.4728 44.6917C46.8895 45.5889 49.345 46.5333 52.8395 47.525C56.0978 48.4694 58.5652 49.9688 60.2415 52.0229C61.9179 54.0771 62.7561 56.45 62.7561 59.1417C62.7561 62.4944 61.7645 65.0444 59.7811 66.7917C57.7978 68.5389 55.3422 69.625 52.4145 70.05V73.1667C52.4145 73.9694 52.1429 74.6424 51.5999 75.1854C51.0568 75.7285 50.3839 76 49.5811 76Z" fill="#154973"/>
</g>
</svg>

<svg xmlns="http://www.w3.org/2000/svg" fill="none" viewBox="0 0 99 100"><ellipse cx="49.5" cy="50" fill="#fff" rx="49.5" ry="50"/><mask id="a" width="41" height="56" x="29" y="22" maskUnits="userSpaceOnUse" style="mask-type:alpha"><path fill="#d9d9d9" d="M29 22h41v56H29z"/></mask><g mask="url(#a)"><path fill="#154973" d="M49.581 76q-1.204 0-2.019-.815-.814-.815-.814-2.018v-3.259q-3.187-.708-5.596-2.479-2.408-1.77-3.896-4.958-.495-.992-.035-2.09t1.664-1.593q.992-.426 2.055.035 1.061.46 1.629 1.523 1.204 2.124 3.045 3.223 1.843 1.098 4.534 1.098 2.904 0 4.923-1.31t2.019-4.074q0-2.479-1.559-3.93-1.558-1.453-7.225-3.295-6.092-1.913-8.358-4.568-2.267-2.657-2.267-6.482 0-4.604 2.975-7.154t6.092-2.904v-3.117q0-1.203.814-2.018.814-.816 2.02-.815 1.203 0 2.018.815t.814 2.018v3.117q2.692.425 4.676 1.735a11.5 11.5 0 0 1 3.258 3.223q.637.921.248 2.054-.39 1.134-1.594 1.63-.992.425-2.054.035-1.063-.39-1.983-1.381a6.3 6.3 0 0 0-2.161-1.523q-1.239-.531-3.081-.531-3.117 0-4.746 1.38-1.63 1.383-1.63 3.436.001 2.338 2.126 3.684 2.124 1.345 7.367 2.833 4.887 1.417 7.401 4.498t2.515 7.119q0 5.028-2.975 7.65-2.975 2.62-7.367 3.258v3.117q0 1.203-.814 2.018T49.58 76"/></g></svg>
